svg/aws-ecs-task.svg

<?xml version="1.0" encoding="UTF-8"?>
<svg xmlns="http://www.w3.org/2000/svg" xmlns:xlink="http://www.w3.org/1999/xlink" width="24.667" height="32" viewBox="0 0 24.667 32">
<path fill-rule="nonzero" fill="rgb(100%, 100%, 100%)" fill-opacity="1" d="M 0.332031 0.332031 L 25 0.332031 L 25 32.332031 L 0.332031 32.332031 Z M 0.332031 0.332031 "/>
<path fill-rule="nonzero" fill="rgb(92.941176%, 44.313725%, 0%)" fill-opacity="1" d="M 10.121094 25.332031 L 21.574219 25.332031 L 21.574219 23.878906 L 10.121094 23.878906 Z M 10.121094 16.425781 L 21.574219 16.425781 L 21.574219 14.964844 L 10.121094 14.964844 Z M 10.121094 7.511719 L 21.574219 7.511719 L 21.574219 6.058594 L 10.121094 6.058594 Z M 5.121094 25.785156 L 5.121094 23.425781 L 7.488281 23.425781 L 7.488281 25.785156 Z M 4.394531 27.238281 L 8.214844 27.238281 C 8.40625 27.238281 8.59375 27.164062 8.730469 27.027344 C 8.867188 26.890625 8.941406 26.703125 8.941406 26.511719 L 8.941406 22.699219 C 8.941406 22.296875 8.617188 21.96875 8.214844 21.964844 L 4.394531 21.964844 C 4.203125 21.96875 4.015625 22.042969 3.878906 22.179688 C 3.742188 22.320312 3.667969 22.507812 3.667969 22.699219 L 3.667969 26.511719 C 3.667969 26.921875 3.992188 27.238281 4.394531 27.238281 M 5.121094 16.878906 L 5.121094 14.511719 L 7.488281 14.511719 L 7.488281 16.878906 Z M 4.394531 18.332031 L 8.214844 18.332031 C 8.613281 18.328125 8.9375 18.003906 8.941406 17.605469 L 8.941406 13.785156 C 8.9375 13.386719 8.613281 13.066406 8.214844 13.058594 L 4.394531 13.058594 C 3.996094 13.0625 3.671875 13.386719 3.667969 13.785156 L 3.667969 17.605469 C 3.667969 18.007812 3.992188 18.332031 4.394531 18.332031 M 5.121094 7.964844 L 5.121094 5.605469 L 7.488281 5.605469 L 7.488281 7.964844 Z M 4.394531 9.425781 L 8.214844 9.425781 C 8.613281 9.421875 8.933594 9.097656 8.941406 8.699219 L 8.941406 4.878906 C 8.9375 4.480469 8.613281 4.15625 8.214844 4.152344 L 4.394531 4.152344 C 3.992188 4.15625 3.667969 4.480469 3.667969 4.878906 L 3.667969 8.699219 C 3.667969 9.101562 3.992188 9.425781 4.394531 9.425781 M 1.941406 30.878906 L 1.941406 1.785156 L 23.394531 1.785156 L 23.394531 30.878906 Z M 24.121094 0.332031 L 1.214844 0.332031 C 1.023438 0.332031 0.835938 0.40625 0.699219 0.542969 C 0.5625 0.679688 0.488281 0.867188 0.488281 1.058594 L 0.488281 31.605469 C 0.488281 32.007812 0.808594 32.332031 1.214844 32.332031 L 24.121094 32.332031 C 24.3125 32.332031 24.5 32.257812 24.636719 32.121094 C 24.773438 31.984375 24.847656 31.796875 24.847656 31.605469 L 24.847656 1.058594 C 24.84375 0.867188 24.765625 0.683594 24.632812 0.546875 C 24.496094 0.410156 24.3125 0.332031 24.121094 0.332031 M 24.121094 0.332031 "/>
</svg>

<svg role="img" viewBox="0 0 24.667 32" height="32" width="24.667" xmlns="http://www.w3.org/2000/svg"><path d="M.332.332H25v32H.332Zm0 0" fill="rgb(100%, 100%, 100%)"/><path d="M10.121 25.332h11.453v-1.453H10.121Zm0-8.906h11.453v-1.461H10.121Zm0-8.914h11.453V6.059H10.121Zm-5 18.273v-2.36h2.367v2.36Zm-.726 1.453h3.82a.723.723 0 0 0 .727-.727V22.7a.734.734 0 0 0-.727-.734h-3.82a.734.734 0 0 0-.516.215.74.74 0 0 0-.211.52v3.812c0 .41.324.726.727.726m.726-10.36v-2.366h2.367v2.367Zm-.726 1.454h3.82a.735.735 0 0 0 .726-.727v-3.82a.735.735 0 0 0-.726-.726h-3.82a.735.735 0 0 0-.727.726v3.82c0 .403.324.727.727.727M5.12 7.965v-2.36h2.367v2.36Zm-.726 1.46h3.82A.735.735 0 0 0 8.94 8.7V4.88a.735.735 0 0 0-.726-.727h-3.82a.73.73 0 0 0-.727.727V8.7c0 .403.324.727.727.727M1.94 30.879V1.785h21.454V30.88ZM24.121.332H1.215a.73.73 0 0 0-.516.211.73.73 0 0 0-.21.516v30.546c0 .403.32.727.726.727H24.12a.73.73 0 0 0 .516-.21.73.73 0 0 0 .21-.517V1.06a.742.742 0 0 0-.214-.512.725.725 0 0 0-.512-.215m0 0" fill="rgb(92.941176%, 44.313725%, 0%)"/></svg>
